X: 14
T:Corn Rigs
G:song or reel
M:C|
L:1/8
Q:1/2=108
K:A
E2|A3 B c2BA|G3 A B2E2|A3 B cdBc|A2 e4    E2|
   A2e2 fedc|dcBA GABG|FGAF BAGF|E2 A>B A2 ||
E2|A2e2 cde2|G3 A B2E2|A2ed cdBc|AB cd  e2A2|
   A2e2 fedc|dcBA GABG|FGAF BAGF|E2 A>B A2 |]

Here's a jig from around 1800 where the home note is D in the scale with
two sharps:

